X:246
T:score48
L:1/8
Q:1/4=96
M:3/8
I:linebreak $
K:F
 .A.A.A | (c/>B/ G2) | .G.G.G | (B/>A/ F2) | (AGF |$ F/>E/ E2) | (GFD | D/>C/ C2) |] %8
